;FLAVOR:Marlin
;TIME:675
;Filament used: 9923.9m
;Layer height: 10
;MINX:710.249
;MINY:710.254
;MINZ:10
;MAXX:1289.64
;MAXY:1289.92
;MAXZ:350
;TARGET_MACHINE.NAME:Unknown
;Generated with Cura_SteamEngine 5.5.0
M104 S240
M105
M109 S240
M82 ;absolute extrusion mode
G28 ;Home
G1 Z15.0 F6000 ;Move the platform down 15mm
;Prime the extruder
G92 E0
G1 F200 E3
G92 E0
G92 E0
G92 E0
;LAYER_COUNT:35
;LAYER:0
M107
;MESH:RandomShape4.stl
G0 F6250.2 X1001.418 Y1273.668 Z10
;TYPE:WALL-OUTER
G1 F6238.7 X1000.595 Y1273.66 E137.12513
G1 F6244.4 X1000.079 Y1273.65 E223.03179
G1 F6247.9 X999.562 Y1273.64 E309.05756
G1 F6251.1 X999.045 Y1273.63 E395.0382
G1 F6254.6 X998.528 Y1273.62 E480.97153
G1 F6257.9 X998.011 Y1273.61 E566.85972
G1 F6261.2 X997.494 Y1273.6 E652.70276
G1 F6264.6 X996.977 Y1273.59 E738.49851
G1 F6267.9 X996.46 Y1273.58 E824.24911
G1 F6271.4 X995.943 Y1273.57 E909.95241
G1 F6274.7 X995.426 Y1273.56 E995.61057
G1 F6278.1 X994.909 Y1273.55 E1081.22143
G1 F6281.5 X994.392 Y1273.54 E1166.78714
G1 F6284.9 X993.875 Y1273.53 E1252.30556
G1 F6288.2 X993.358 Y1273.52 E1337.77883
G1 F6291.6 X992.842 Y1273.51 E1423.04177
G1 F6295.1 X992.325 Y1273.5 E1508.4226
G1 F6298.4 X991.808 Y1273.49 E1593.75828
G1 F6301.9 X991.291 Y1273.48 E1679.04666
G1 F6305.2 X990.774 Y1273.47 E1764.2899
G1 F6308.7 X990.257 Y1273.46 E1849.48584
G1 F6312.1 X989.74 Y1273.45 E1934.63664
G1 F6315.6 X989.223 Y1273.44 E2019.74013
G1 F6318.9 X988.706 Y1273.43 E2104.79848
G1 F6322.4 X988.189 Y1273.42 E2189.80954
G1 F6325.8 X987.672 Y1273.41 E2274.77545
G1 F6329.2 X987.155 Y1273.399 E2359.69954
G1 F6332.7 X986.638 Y1273.389 E2444.57301
G1 F6336.1 X986.121 Y1273.379 E2529.40133
G1 F6339.6 X985.605 Y1273.369 E2614.01842
G1 F6342.6 X984.789 Y1273.346 E2747.79504
G1 F6342.3 X983.92 Y1273.302 E2890.39368
G1 F6331.1 X982.325 Y1273.175 E3153.08347
G1 F6319.7 X981.822 Y1273.124 E3236.23672
G1 F6315.6 X981.319 Y1273.073 E3319.44462
G1 F6311.4 X980.815 Y1273.021 E3402.88776
G1 F6307.4 X980.312 Y1272.97 E3486.20286
G1 F6303.3 X979.809 Y1272.918 E3569.58941
G1 F6299.2 X979.305 Y1272.867 E3653.17798
G1 F6295.1 X978.802 Y1272.815 E3736.67385
G1 F6291.1 X978.298 Y1272.764 E3820.36983
G1 F6287 X977.795 Y1272.712 E3903.97292
G1 F6282.9 X977.292 Y1272.661 E3987.61382
G1 F6278.9 X976.788 Y1272.609 E4071.4888
G1 F6274.8 X976.285 Y1272.558 E4155.2369
G1 F6270.7 X975.781 Y1272.506 E4239.22141
G92 E0
G1 F6266.8 X975.278 Y1272.455 E83.8553
G1 F6262.7 X974.775 Y1272.403 E167.78216
G1 F6258.6 X974.271 Y1272.352 E251.91199
G1 F6254.6 X973.768 Y1272.301 E335.93125
G1 F6250.7 X973.264 Y1272.249 E420.18539
G1 F6246.6 X972.761 Y1272.198 E504.31185
G1 F6242.6 X972.258 Y1272.146 E588.50991
G1 F6238.7 X971.754 Y1272.095 E672.90932
G1 F6234.6 X971.251 Y1272.043 E757.21461
G1 F6230.6 X970.747 Y1271.992 E841.72354
G1 F6226.7 X970.244 Y1271.94 E926.13604
G1 F6222.7 X969.741 Y1271.889 E1010.5862
G1 F6218.6 X969.237 Y1271.837 E1095.27429
G1 F6214.6 X968.734 Y1271.786 E1179.83374
G1 F6210.8 X968.23 Y1271.734 E1264.62926
G1 F6206.8 X967.727 Y1271.683 E1349.29592
G1 F6202.7 X967.224 Y1271.631 E1434.03429
G1 F6198.9 X966.72 Y1271.58 E1518.97497
G1 F6194.9 X966.217 Y1271.529 E1603.80348
G1 F6190.9 X965.713 Y1271.477 E1688.87074
G1 F6187.1 X965.21 Y1271.426 E1773.80644
G1 F6183.1 X964.707 Y1271.374 E1858.81392
G1 F6179.1 X964.203 Y1271.323 E1944.02628
G1 F6175.2 X963.7 Y1271.271 E2029.14309
G1 F6171.4 X963.196 Y1271.22 E2114.46286
G1 F6167.4 X962.693 Y1271.168 E2199.68688
G1 F6163.4 X962.19 Y1271.117 E2284.94839
G1 F6164.4 X961.702 Y1271.036 E2368.35899
G1 F6170 X961.208 Y1270.954 E2452.71822
G1 F6175.6 X960.714 Y1270.872 E2537.00042
G1 F6181.3 X960.219 Y1270.79 E2621.37147
G1 F6186.9 X959.725 Y1270.708 E2705.4996
G1 F6192.6 X959.231 Y1270.626 E2789.55071
G1 F6198.3 X958.737 Y1270.544 E2873.52478
G1 F6204 X958.242 Y1270.462 E2957.5871
G1 F6209.7 X957.748 Y1270.38 E3041.40711
G1 F6215.4 X957.254 Y1270.298 E3125.15009
G1 F6221.1 X956.759 Y1270.216 E3208.98087
G1 F6226.8 X956.265 Y1270.134 E3292.56979
G1 F6232.6 X955.771 Y1270.052 E3376.08167
G1 F6238.3 X955.277 Y1269.97 E3459.51653
G1 F6244.4 X954.483 Y1269.83 E3593.72016
G1 F6249.1 X953.991 Y1269.739 E3676.94241
G1 F6251.8 X953.498 Y1269.647 E3760.32313
G1 F6254.4 X953.006 Y1269.555 E3843.50504
G1 F6257.1 X952.513 Y1269.463 E3926.81487
G1 F6259.6 X952.021 Y1269.371 E4009.92811
G1 F6262.3 X951.528 Y1269.279 E4093.16914
G1 F6264.9 X951.036 Y1269.187 E4176.21162
G92 E0
G1 F6267.6 X950.543 Y1269.095 E83.17013
G1 F6270.3 X950.051 Y1269.003 E166.14187
G1 F6272.9 X949.558 Y1268.911 E249.24111
G1 F6275.6 X949.066 Y1268.819 E332.14209
G1 F6278.1 X948.573 Y1268.727 E415.17253
G1 F6280.8 X948.081 Y1268.635 E498.00484
G1 F6283.5 X947.588 Y1268.543 E580.96438
G1 F6286.2 X947.096 Y1268.451 E663.72594
G1 F6288.9 X946.603 Y1268.359 E746.61459
G1 F6291.6 X946.111 Y1268.267 E829.3054
G1 F6294.3 X945.618 Y1268.175 E912.12316
G1 F6297 X945.126 Y1268.083 E994.74321
G1 F6299.5 X944.633 Y1267.991 E1077.49217
G1 F6302.2 X944.141 Y1267.899 E1160.04355
G1 F6304.9 X943.648 Y1267.807 E1242.72161
G1 F6307.6 X943.156 Y1267.715 E1325.20225
G1 F6310.3 X942.663 Y1267.623 E1407.80942
G1 F6313 X942.171 Y1267.531 E1490.2193
G1 F6315.7 X941.678 Y1267.439 E1572.75558
G1 F6318.3 X941.186 Y1267.347 E1655.09678
G1 F6321 X940.693 Y1267.255 E1737.56426
G1 F6323.7 X940.201 Y1267.163 E1819.83471
G1 F6326.4 X939.708 Y1267.071 E1902.23129
G1 F6328.2 X939.05 Y1266.944 E2012.30313
G1 F6326.4 X938.031 Y1266.722 E2183.64858
G1 F6319.6 X937.203 Y1266.518 E2323.90676
G1 F6310.5 X936.62 Y1266.37 E2422.98007
G1 F6301.2 X936.036 Y1266.222 E2522.3583
G1 F6292 X935.453 Y1266.073 E2621.76247
G1 F6283 X934.869 Y1265.925 E2721.42875
G1 F6273.9 X934.286 Y1265.776 E2821.12061
G1 F6267.6 X933.797 Y1265.638 E2905.3834
G1 F6264 X933.306 Y1265.5 E2990.01423
G1 F6260.4 X932.815 Y1265.362 E3074.69382
G1 F6256.8 X932.324 Y1265.223 E3159.46728
G1 F6253 X931.833 Y1265.085 E3244.24653
G1 F6249.4 X931.342 Y1264.947 E3329.07456
G1 F6245.8 X930.851 Y1264.809 E3413.95135
G1 F6242.2 X930.36 Y1264.67 E3498.92212
G1 F6238.7 X929.869 Y1264.532 E3583.89645
G1 F6235.1 X929.378 Y1264.394 E3668.91955
G1 F6231.5 X928.887 Y1264.255 E3754.03671
G1 F6227.8 X928.397 Y1264.117 E3838.99881
G1 F6224.2 X927.906 Y1263.979 E3924.17034
G1 F6220.7 X927.415 Y1263.841 E4009.39064
G1 F6217.1 X926.924 Y1263.702 E4094.70511
G1 F6213.5 X926.433 Y1263.564 E4180.02295
G92 E0
G1 F6210 X925.942 Y1263.426 E85.36661
G1 F6206.4 X925.451 Y1263.288 E170.782
G1 F6202.9 X924.96 Y1263.149 E256.29164
G1 F6199.2 X924.469 Y1263.011 E341.80668
G1 F6195.7 X923.978 Y1262.873 E427.3705
G1 F6192.1 X923.487 Y1262.734 E513.02865
G1 F6188.6 X922.997 Y1262.596 E598.52833
G1 F6185.1 X922.506 Y1262.458 E684.23845
G1 F6181.6 X922.015 Y1262.32 E769.99735
G1 F6178.1 X921.524 Y1262.181 E855.85068
G1 F6174.4 X921.033 Y1262.043 E941.70924
G1 F6170.9 X920.542 Y1261.905 E1027.61656
G1 F6167.4 X920.051 Y1261.766 E1113.61841
G1 F6163.9 X919.56 Y1261.628 E1199.62327
G1 F6164.7 X919.071 Y1261.461 E1286.74815
G1 F6169.7 X918.591 Y1261.297 E1372.20393
G1 F6174.7 X918.111 Y1261.133 E1457.59011
G1 F6179.8 X917.632 Y1260.969 E1542.74755
G1 F6184.8 X917.152 Y1260.804 E1628.04903
G1 F6189.8 X916.672 Y1260.64 E1713.22643
G1 F6194.9 X916.193 Y1260.476 E1798.17549
G1 F6200 X915.713 Y1260.312 E1883.2137
G1 F6205.1 X915.233 Y1260.147 E1968.23663
G1 F6210.1 X914.754 Y1259.983 E2052.9773
G1 F6215.4 X914.274 Y1259.819 E2137.80463
G1 F6220.5 X913.794 Y1259.655 E2222.56237
G1 F6225.6 X913.315 Y1259.491 E2307.09254
G1 F6230.7 X912.835 Y1259.326 E2391.76517
G1 F6235.9 X912.355 Y1259.162 E2476.31413
G1 F6241 X911.875 Y1258.998 E2560.79349
G1 F6246.1 X911.396 Y1258.834 E2645.04581
G1 F6251.3 X910.916 Y1258.669 E2729.4399
G1 F6256.5 X910.436 Y1258.505 E2813.71048
G1 F6261.8 X909.684 Y1258.238 E2946.17177
G1 F6265.7 X909.197 Y1258.061 E3032.13017
G1 F6267.7 X908.709 Y1257.883 E3118.27313
G1 F6269.8 X908.222 Y1257.705 E3204.23229
G1 F6272 X907.734 Y1257.527 E3290.31694
G1 F6274 X907.247 Y1257.349 E3376.21789
G1 F6276.1 X906.759 Y1257.171 E3462.24639
G1 F6278.1 X906.271 Y1256.993 E3548.24682
G1 F6280.2 X905.784 Y1256.816 E3634.00702
G1 F6282.2 X905.296 Y1256.638 E3719.9513
G1 F6284.5 X904.809 Y1256.46 E3805.70998
G1 F6286.5 X904.321 Y1256.282 E3891.59594
G1 F6288.6 X903.834 Y1256.104 E3977.29857
G1 F6290.6 X903.346 Y1255.926 E4063.12839
G1 F6292.7 X902.858 Y1255.748 E4148.93013
G1 F6294.7 X902.371 Y1255.571 E4234.49214
G92 E0
G1 F6297 X901.883 Y1255.393 E85.74343
G1 F6299 X901.396 Y1255.215 E171.30378
G1 F6301.1 X900.908 Y1255.037 E256.99106
G1 F6303.1 X900.42 Y1254.859 E342.65027
G1 F6305.2 X899.933 Y1254.681 E428.12655
G1 F6307.4 X899.445 Y1254.503 E513.72744
G1 F6309.5 X898.958 Y1254.326 E599.0891
G1 F6311.6 X898.47 Y1254.148 E684.63385
G1 F6313.7 X897.983 Y1253.97 E769.99587
G1 F6315.7 X897.495 Y1253.792 E855.48447
G1 F6317.8 X897.007 Y1253.614 E940.94499
G1 F6320 X896.52 Y1253.436 E1026.22079
G1 F6322.1 X896.032 Y1253.258 E1111.623
G1 F6324.2 X895.545 Y1253.08 E1196.84275
G1 F6325 X894.745 Y1252.781 E1337.1923
G1 F6322.3 X893.951 Y1252.461 E1477.93246
G1 F6314.3 X893.164 Y1252.123 E1618.92525
G1 F6300.4 X892.236 Y1251.714 E1786.2312
G1 F6289.8 X891.776 Y1251.498 E1870.21094
G1 F6285.4 X891.315 Y1251.282 E1954.39955
G1 F6281 X890.854 Y1251.065 E2038.71777
G1 F6276.4 X890.394 Y1250.849 E2122.8771
G1 F6272 X889.933 Y1250.633 E2207.24562
G1 F6267.6 X889.472 Y1250.416 E2291.7439
G1 F6263 X889.011 Y1250.2 E2376.23307
G1 F6258.6 X888.551 Y1249.983 E2460.70186
G1 F6254.3 X888.09 Y1249.767 E2545.30956
G1 F6249.7 X887.629 Y1249.551 E2629.97863
G1 F6245.4 X887.168 Y1249.334 E2714.77772
G1 F6241 X886.708 Y1249.118 E2799.41454
G1 F6236.5 X886.247 Y1248.902 E2884.26352
G1 F6232.1 X885.786 Y1248.685 E2969.24266
G1 F6227.8 X885.325 Y1248.469 E3054.21018
G1 F6223.3 X884.865 Y1248.252 E3139.15898
G1 F6218.9 X884.404 Y1248.036 E3224.24713
G1 F6214.6 X883.943 Y1247.82 E3309.39455
G1 F6210.1 X883.482 Y1247.603 E3394.6745
G1 F6205.8 X883.022 Y1247.387 E3479.79093
G1 F6201.5 X882.561 Y1247.17 E3565.1895
G1 F6197.1 X882.1 Y1246.954 E3650.57821
G1 F6192.8 X881.639 Y1246.738 E3736.02618
G1 F6188.5 X881.179 Y1246.521 E3821.45288
G1 F6188.2 X880.718 Y1246.276 E3909.14206
G1 F6191.8 X880.266 Y1246.034 E3995.20912
G1 F6195.7 X879.813 Y1245.792 E4081.37082
G1 F6199.4 X879.361 Y1245.55 E4167.33342
G92 E0
G1 F6203.2 X878.908 Y1245.308 E86.05707
G1 F6206.9 X878.456 Y1245.066 E171.91523
G1 F6210.8 X878.003 Y1244.824 E257.86767
G1 F6214.5 X877.551 Y1244.583 E343.54256
G1 F6218.3 X877.098 Y1244.341 E429.39038
G1 F6222 X876.646 Y1244.099 E515.03964
G1 F6225.9 X876.194 Y1243.857 E600.63561
G1 F6229.6 X875.741 Y1243.615 E686.32756
G1 F6233.5 X875.289 Y1243.373 E771.81908
G1 F6237.4 X874.836 Y1243.131 E857.40426
G1 F6241.2 X874.384 Y1242.89 E942.71286
G1 F6245 X873.931 Y1242.648 E1028.19341
G1 F6248.8 X873.479 Y1242.406 E1113.47604
G1 F6252.7 X873.026 Y1242.164 E1198.85197
G1 F6256.5 X872.574 Y1241.922 E1284.03015
G1 F6260.4 X872.122 Y1241.68 E1369.15504
G1 F6264.1 X871.669 Y1241.438 E1454.37509
G1 F6268.1 X871.217 Y1241.197 E1539.31739
G1 F6271.8 X870.764 Y1240.955 E1624.43282
G1 F6278 X869.917 Y1240.497 E1783.85486
G1 F6286.5 X869.079 Y1240.045 E1941.28001
G1 F6295.1 X868.242 Y1239.592 E2098.42461
G1 F6301.6 X867.57 Y1239.221 E2225.03828
G1 F6304.9 X866.947 Y1238.869 E2343.00487
G1 F6307 X866.324 Y1238.517 E2460.93279
G1 F6308.9 X865.701 Y1238.164 E2578.90615
G1 F6310.9 X865.077 Y1237.812 E2696.90312
G1 F6313 X864.454 Y1237.459 E2814.79907
G1 F6315.1 X863.831 Y1237.107 E2932.57527
G1 F6317 X863.208 Y1236.754 E3050.39679
G1 F6319.1 X862.584 Y1236.402 E3168.24186
G1 F6321.2 X861.961 Y1236.05 E3285.905
G1 F6323.2 X861.338 Y1235.697 E3403.61043
G1 F6325.2 X860.714 Y1235.345 E3521.3423
G1 F6327.2 X860.091 Y1234.992 E3638.9733
G1 F6329.3 X859.468 Y1234.64 E3756.48472
G1 F6331.4 X858.845 Y1234.287 E3874.03832
G1 F6333.5 X858.221 Y1233.935 E3991.61531
G1 F6335.4 X857.598 Y1233.583 E4109.01368
G1 F6337.5 X856.975 Y1233.23 E4226.45415
G92 E0
G1 F6339.6 X856.352 Y1232.878 E117.32103
G1 F6341.7 X855.728 Y1232.525 E234.82672
G1 F6343.6 X855.105 Y1232.173 E352.07337
G1 F6345.7 X854.482 Y1231.82 E469.36201
G1 F6346.2 X853.729 Y1231.386 E611.71073
G1 F6342.2 X852.992 Y1230.938 E753.06211
G1 F6332.7 X852.267 Y1230.471 E894.60991
G1 F6322.3 X851.844 Y1230.194 E977.73733
G1 F6313 X851.421 Y1229.917 E1060.98668
G1 F6303.9 X850.998 Y1229.639 E1144.44629
G1 F6294.9 X850.575 Y1229.362 E1227.93528
G1 F6285.7 X850.151 Y1229.084 E1311.77514
G1 F6276.7 X849.728 Y1228.807 E1395.50588
G1 F6267.7 X849.305 Y1228.53 E1479.35644
G1 F6258.6 X848.882 Y1228.252 E1563.42003
G1 F6249.7 X848.458 Y1227.975 E1647.65152
G1 F6240.7 X848.035 Y1227.697 E1731.95711
G1 F6231.8 X847.612 Y1227.42 E1816.29117
G1 F6223 X847.189 Y1227.142 E1900.83667
G1 F6214 X846.766 Y1226.865 E1985.41247
G1 F6205.2 X846.342 Y1226.588 E2070.24828
G1 F6196.4 X845.919 Y1226.31 E2155.15574
G1 F6187.6 X845.496 Y1226.033 E2240.09312
G1 F6184.3 X845.094 Y1225.727 E2325.00513
G1 F6186.5 X844.696 Y1225.423 E2409.14958
G1 F6188.8 X844.297 Y1225.119 E2493.39632
G1 F6190.9 X843.899 Y1224.815 E2577.48038
G1 F6193.2 X843.5 Y1224.512 E2661.56504
G1 F6195.5 X843.102 Y1224.208 E2745.58664
G1 F6197.7 X842.703 Y1223.904 E2829.71243
G1 F6200 X842.305 Y1223.6 E2913.67364
G1 F6202.1 X841.906 Y1223.297 E2997.63749
G1 F6204.4 X841.508 Y1222.993 E3081.53832
G1 F6206.6 X841.11 Y1222.689 E3165.41
G1 F6208.9 X840.711 Y1222.385 E3249.38355
G1 F6211.2 X840.313 Y1222.082 E3333.09129
G1 F6213.4 X839.914 Y1221.778 E3417.00436
G1 F6215.7 X839.516 Y1221.474 E3500.75319
G1 F6217.9 X839.117 Y1221.17 E3584.60578
G1 F6220.2 X838.719 Y1220.867 E3668.1929
G1 F6222.4 X838.32 Y1220.563 E3751.98502
G1 F6224.7 X837.922 Y1220.259 E3835.61308
G1 F6227 X837.524 Y1219.955 E3919.20992
G1 F6229.2 X837.125 Y1219.652 E4002.80925
G1 F6231.5 X836.727 Y1219.348 E4086.3457
G1 F6233.7 X836.328 Y1219.044 E4169.98557
G92 E0
G1 F6236 X835.93 Y1218.74 E83.47607
G1 F6238.2 X835.531 Y1218.437 E166.95459
G1 F6240.5 X835.133 Y1218.133 E250.37028
G1 F6242.9 X834.734 Y1217.829 E333.88711
G1 F6245 X834.336 Y1217.525 E417.24241
G1 F6249 X833.77 Y1217.085 E536.48841
G1 F6254.3 X833.202 Y1216.644 E655.99752
G1 F6259.6 X832.634 Y1216.203 E775.40498
G1 F6264.9 X832.067 Y1215.761 E894.68171
G1 F6270.4 X831.499 Y1215.32 E1013.88288
G1 F6275.8 X830.931 Y1214.879 E1132.9824
G1 F6281.1 X830.364 Y1214.438 E1251.84961
G1 F6286.5 X829.796 Y1213.996 E1370.8473
G1 F6291.1 X829.22 Y1213.539 E1492.32874
G1 F6294.1 X828.323 Y1212.815 E1682.69131
G1 F6296 X827.426 Y1212.091 E1872.99637
G1 F6298.1 X826.529 Y1211.367 E2063.23912
G1 F6300 X825.632 Y1210.642 E2253.52804
G1 F6302 X824.734 Y1209.918 E2443.77935
G1 F6303.9 X823.837 Y1209.194 E2633.84478
G1 F6305.8 X822.94 Y1208.47 E2823.85271
G1 F6307.9 X822.043 Y1207.745 E3013.90186
G1 F6309.8 X821.146 Y1207.021 E3203.78997
G1 F6311.9 X820.248 Y1206.297 E3393.74395
G1 F6313.8 X819.351 Y1205.572 E3583.61569
G1 F6315.9 X818.454 Y1204.848 E3773.32169
G1 F6317.8 X817.557 Y1204.124 E3962.97017
G1 F6317.6 X816.879 Y1203.567 E4107.33436
G1 F6312.7 X816.214 Y1202.993 E4251.97742
G92 E0
G1 F6302.2 X815.563 Y1202.402 E145.01369
G1 F6290.3 X815.165 Y1202.035 E234.4717
G1 F6279.9 X814.767 Y1201.667 E324.19055
G1 F6269.5 X814.369 Y1201.299 E414.05814
G1 F6259.1 X813.971 Y1200.932 E503.96181
G1 F6248.8 X813.573 Y1200.564 E594.12688
G1 F6238.5 X813.174 Y1200.196 E684.56309
G1 F6228.2 X812.776 Y1199.828 E775.02563
G1 F6218 X812.378 Y1199.461 E865.52351
G1 F6207.8 X811.98 Y1199.093 E956.28354
G1 F6203.8 X811.306 Y1198.38 E1120.66823
G1 F6205.8 X810.631 Y1197.667 E1285.11499
G1 F6207.8 X809.956 Y1196.953 E1449.63032
G1 F6209.8 X809.281 Y1196.24 E1613.97096
