;FLAVOR:Marlin
;TIME:1245
;Filament used: 7287.35m
;Layer height: 9.5
;MINX:507.5
;MINY:977.5
;MINZ:9.5
;MAXX:1492.5
;MAXY:1022.5
;MAXZ:285
;TARGET_MACHINE.NAME:Unknown
;Generated with Cura_SteamEngine 5.5.0
M104 S240
M105
M109 S240
M82 ;absolute extrusion mode
G28 ;Home
G1 Z15.0 F6000 ;Move the platform down 15mm
;Prime the extruder
G92 E0
G1 F200 E3
G92 E0
G92 E0
G92 E0
;LAYER_COUNT:30
;LAYER:0
M107
;MESH:StraightWall.stl
G0 F6250.2 X1492.5 Y1022.5 Z9.5
;TYPE:WALL-OUTER
G1 X507.5 Y1022.5 E58355.94632
G92 E0
G1 X507.5 Y977.5 E2666.0077
G1 X1492.5 Y977.5 E61021.95402
G92 E0
G1 X1492.5 Y1022.5 E2666.0077
G0 X1492.5 Y1017.5
G0 X1477.43 Y1007.43
G0 X1477.875 Y1007.875
;TYPE:SKIN
G1 F5952.6 X522.125 Y1007.875 E62120.20108
G92 E0
G1 X522.125 Y992.125 E979.75783
G1 X1477.875 Y992.125 E60433.95121
G92 E0
G1 X1477.875 Y1007.875 E979.75783
;MESH:NONMESH
G0 F600 X1477.875 Y1007.875 Z19
G0 F6250.2 X1477.43 Y1007.43
G0 X1492.5 Y1022.5
;TIME_ELAPSED:58.387160
;LAYER:1
;TYPE:WALL-OUTER
;MESH:StraightWall.stl
G1 X507.5 Y1022.5 E59335.70415
G92 E0
G1 X507.5 Y977.5 E2666.0077
G1 X1492.5 Y977.5 E61021.95402
G92 E0
G1 X1492.5 Y1022.5 E2666.0077
G0 X1492.5 Y1017.5
G0 X1477.43 Y1007.43
G0 X1477.875 Y1007.875
;TYPE:SKIN
G1 F5952.6 X522.125 Y1007.875 E62120.20108
G92 E0
G1 X522.125 Y992.125 E979.75783
G1 X1477.875 Y992.125 E60433.95121
G92 E0
G1 X1477.875 Y1007.875 E979.75783
;MESH:NONMESH
G0 F600 X1477.875 Y1007.875 Z28.5
G0 F6250.2 X1477.43 Y1007.43
G0 X1492.5 Y1022.5
;TIME_ELAPSED:99.380484
;LAYER:2
;TYPE:WALL-OUTER
;MESH:StraightWall.stl
G1 X507.5 Y1022.5 E59335.70415
G92 E0
G1 X507.5 Y977.5 E2666.0077
G1 X1492.5 Y977.5 E61021.95402
G92 E0
G1 X1492.5 Y1022.5 E2666.0077
G0 X1492.5 Y1017.5
G0 X1477.43 Y1007.43
G0 X1477.875 Y1007.875
;TYPE:SKIN
G1 F5952.6 X522.125 Y1007.875 E62120.20108
G92 E0
G1 X522.125 Y992.125 E979.75783
G1 X1477.875 Y992.125 E60433.95121
G92 E0
G1 X1477.875 Y1007.875 E979.75783
;MESH:NONMESH
G0 F600 X1477.875 Y1007.875 Z38
G0 F6250.2 X1477.43 Y1007.43
G0 X1492.5 Y1022.5
;TIME_ELAPSED:140.373807
;LAYER:3
;TYPE:WALL-OUTER
;MESH:StraightWall.stl
G1 X507.5 Y1022.5 E59335.70415
G92 E0
G1 X507.5 Y977.5 E2666.0077
G1 X1492.5 Y977.5 E61021.95402
G92 E0
G1 X1492.5 Y1022.5 E2666.0077
G0 X1492.5 Y1017.5
G0 X1477.43 Y1007.43
G0 X1477.875 Y1007.875
;TYPE:SKIN
G1 F5952.6 X522.125 Y1007.875 E62120.20108
G92 E0
G1 X522.125 Y992.125 E979.75783
G1 X1477.875 Y992.125 E60433.95121
G92 E0
G1 X1477.875 Y1007.875 E979.75783
;MESH:NONMESH
G0 F600 X1477.875 Y1007.875 Z47.5
G0 F6250.2 X1477.43 Y1007.43
G0 X1492.5 Y1022.5
;TIME_ELAPSED:181.367131
;LAYER:4
;TYPE:WALL-OUTER
;MESH:StraightWall.stl
G1 X507.5 Y1022.5 E59335.70415
G92 E0
G1 X507.5 Y977.5 E2666.0077
G1 X1492.5 Y977.5 E61021.95402
G92 E0
G1 X1492.5 Y1022.5 E2666.0077
G0 X1492.5 Y1017.5
G0 X1477.43 Y1007.43
G0 X1477.875 Y1007.875
;TYPE:SKIN
G1 F5952.6 X522.125 Y1007.875 E62120.20108
G92 E0
G1 X522.125 Y992.125 E979.75783
G1 X1477.875 Y992.125 E60433.95121
G92 E0
G1 X1477.875 Y1007.875 E979.75783
;MESH:NONMESH
G0 F600 X1477.875 Y1007.875 Z57
G0 F6250.2 X1477.43 Y1007.43
G0 X1492.5 Y1022.5
;TIME_ELAPSED:222.360454
;LAYER:5
;TYPE:WALL-OUTER
;MESH:StraightWall.stl
G1 X507.5 Y1022.5 E59335.70415
G92 E0
G1 X507.5 Y977.5 E2666.0077
G1 X1492.5 Y977.5 E61021.95402
G92 E0
G1 X1492.5 Y1022.5 E2666.0077
G0 X1492.5 Y1017.5
G0 X1477.43 Y1007.43
G0 X1477.875 Y1007.875
;TYPE:SKIN
G1 F5952.6 X522.125 Y1007.875 E62120.20108
G92 E0
G1 X522.125 Y992.125 E979.75783
G1 X1477.875 Y992.125 E60433.95121
G92 E0
G1 X1477.875 Y1007.875 E979.75783
;MESH:NONMESH
G0 F600 X1477.875 Y1007.875 Z66.5
G0 F6250.2 X1477.43 Y1007.43
G0 X1492.5 Y1022.5
;TIME_ELAPSED:263.353778
;LAYER:6
;TYPE:WALL-OUTER
;MESH:StraightWall.stl
G1 X507.5 Y1022.5 E59335.70415
G92 E0
G1 X507.5 Y977.5 E2666.0077
G1 X1492.5 Y977.5 E61021.95402
G92 E0
G1 X1492.5 Y1022.5 E2666.0077
G0 X1492.5 Y1017.5
G0 X1477.43 Y1007.43
G0 X1477.875 Y1007.875
;TYPE:SKIN
G1 F5952.6 X522.125 Y1007.875 E62120.20108
G92 E0
G1 X522.125 Y992.125 E979.75783
G1 X1477.875 Y992.125 E60433.95121
G92 E0
G1 X1477.875 Y1007.875 E979.75783
;MESH:NONMESH
G0 F600 X1477.875 Y1007.875 Z76
G0 F6250.2 X1477.43 Y1007.43
G0 X1492.5 Y1022.5
;TIME_ELAPSED:304.347101
;LAYER:7
;TYPE:WALL-OUTER
;MESH:StraightWall.stl
G1 X507.5 Y1022.5 E59335.70415
G92 E0
G1 X507.5 Y977.5 E2666.0077
G1 X1492.5 Y977.5 E61021.95402
G92 E0
G1 X1492.5 Y1022.5 E2666.0077
G0 X1492.5 Y1017.5
G0 X1477.43 Y1007.43
G0 X1477.875 Y1007.875
;TYPE:SKIN
G1 F5952.6 X522.125 Y1007.875 E62120.20108
G92 E0
G1 X522.125 Y992.125 E979.75783
G1 X1477.875 Y992.125 E60433.95121
G92 E0
G1 X1477.875 Y1007.875 E979.75783
;MESH:NONMESH
G0 F600 X1477.875 Y1007.875 Z85.5
G0 F6250.2 X1477.43 Y1007.43
G0 X1492.5 Y1022.5
;TIME_ELAPSED:345.340425
;LAYER:8
;TYPE:WALL-OUTER
;MESH:StraightWall.stl
G1 X507.5 Y1022.5 E59335.70415
G92 E0
G1 X507.5 Y977.5 E2666.0077
G1 X1492.5 Y977.5 E61021.95402
G92 E0
G1 X1492.5 Y1022.5 E2666.0077
G0 X1492.5 Y1017.5
G0 X1477.43 Y1007.43
G0 X1477.875 Y1007.875
;TYPE:SKIN
G1 F5952.6 X522.125 Y1007.875 E62120.20108
G92 E0
G1 X522.125 Y992.125 E979.75783
G1 X1477.875 Y992.125 E60433.95121
G92 E0
G1 X1477.875 Y1007.875 E979.75783
;MESH:NONMESH
G0 F600 X1477.875 Y1007.875 Z95
G0 F6250.2 X1477.43 Y1007.43
G0 X1492.5 Y1022.5
;TIME_ELAPSED:386.333748
;LAYER:9
;TYPE:WALL-OUTER
;MESH:StraightWall.stl
G1 X507.5 Y1022.5 E59335.70415
G92 E0
G1 X507.5 Y977.5 E2666.0077
G1 X1492.5 Y977.5 E61021.95402
G92 E0
G1 X1492.5 Y1022.5 E2666.0077
G0 X1492.5 Y1017.5
G0 X1477.43 Y1007.43
G0 X1477.875 Y1007.875
;TYPE:SKIN
G1 F5952.6 X522.125 Y1007.875 E62120.20108
G92 E0
G1 X522.125 Y992.125 E979.75783
G1 X1477.875 Y992.125 E60433.95121
G92 E0
G1 X1477.875 Y1007.875 E979.75783
;MESH:NONMESH
G0 F600 X1477.875 Y1007.875 Z104.5
G0 F6250.2 X1477.43 Y1007.43
G0 X1492.5 Y1022.5
;TIME_ELAPSED:427.327072
;LAYER:10
;TYPE:WALL-OUTER
;MESH:StraightWall.stl
G1 X507.5 Y1022.5 E59335.70415
G92 E0
G1 X507.5 Y977.5 E2666.0077
G1 X1492.5 Y977.5 E61021.95402
G92 E0
G1 X1492.5 Y1022.5 E2666.0077
G0 X1492.5 Y1017.5
G0 X1477.43 Y1007.43
G0 X1477.875 Y1007.875
;TYPE:SKIN
G1 F5952.6 X522.125 Y1007.875 E62120.20108
G92 E0
G1 X522.125 Y992.125 E979.75783
G1 X1477.875 Y992.125 E60433.95121
G92 E0
G1 X1477.875 Y1007.875 E979.75783
;MESH:NONMESH
G0 F600 X1477.875 Y1007.875 Z114
G0 F6250.2 X1477.43 Y1007.43
G0 X1492.5 Y1022.5
;TIME_ELAPSED:468.320395
;LAYER:11
;TYPE:WALL-OUTER
;MESH:StraightWall.stl
G1 X507.5 Y1022.5 E59335.70415
G92 E0
G1 X507.5 Y977.5 E2666.0077
G1 X1492.5 Y977.5 E61021.95402
G92 E0
G1 X1492.5 Y1022.5 E2666.0077
G0 X1492.5 Y1017.5
G0 X1477.43 Y1007.43
G0 X1477.875 Y1007.875
;TYPE:SKIN
G1 F5952.6 X522.125 Y1007.875 E62120.20108
G92 E0
G1 X522.125 Y992.125 E979.75783
G1 X1477.875 Y992.125 E60433.95121
G92 E0
G1 X1477.875 Y1007.875 E979.75783
;MESH:NONMESH
G0 F600 X1477.875 Y1007.875 Z123.5
G0 F6250.2 X1477.43 Y1007.43
G0 X1492.5 Y1022.5
;TIME_ELAPSED:509.313719
;LAYER:12
;TYPE:WALL-OUTER
;MESH:StraightWall.stl
G1 X507.5 Y1022.5 E59335.70415
G92 E0
G1 X507.5 Y977.5 E2666.0077
G1 X1492.5 Y977.5 E61021.95402
G92 E0
G1 X1492.5 Y1022.5 E2666.0077
G0 X1492.5 Y1017.5
G0 X1477.43 Y1007.43
G0 X1477.875 Y1007.875
;TYPE:SKIN
G1 F5952.6 X522.125 Y1007.875 E62120.20108
G92 E0
G1 X522.125 Y992.125 E979.75783
G1 X1477.875 Y992.125 E60433.95121
G92 E0
G1 X1477.875 Y1007.875 E979.75783
;MESH:NONMESH
G0 F600 X1477.875 Y1007.875 Z133
G0 F6250.2 X1477.43 Y1007.43
G0 X1492.5 Y1022.5
;TIME_ELAPSED:550.307042
;LAYER:13
;TYPE:WALL-OUTER
;MESH:StraightWall.stl
G1 X507.5 Y1022.5 E59335.70415
G92 E0
G1 X507.5 Y977.5 E2666.0077
G1 X1492.5 Y977.5 E61021.95402
G92 E0
G1 X1492.5 Y1022.5 E2666.0077
G0 X1492.5 Y1017.5
G0 X1477.43 Y1007.43
G0 X1477.875 Y1007.875
;TYPE:SKIN
G1 F5952.6 X522.125 Y1007.875 E62120.20108
G92 E0
G1 X522.125 Y992.125 E979.75783
G1 X1477.875 Y992.125 E60433.95121
G92 E0
G1 X1477.875 Y1007.875 E979.75783
;MESH:NONMESH
G0 F600 X1477.875 Y1007.875 Z142.5
G0 F6250.2 X1477.43 Y1007.43
G0 X1492.5 Y1022.5
;TIME_ELAPSED:591.300366
;LAYER:14
;TYPE:WALL-OUTER
;MESH:StraightWall.stl
G1 X507.5 Y1022.5 E59335.70415
G92 E0
G1 X507.5 Y977.5 E2666.0077
G1 X1492.5 Y977.5 E61021.95402
G92 E0
G1 X1492.5 Y1022.5 E2666.0077
G0 X1492.5 Y1017.5
G0 X1477.43 Y1007.43
G0 X1477.875 Y1007.875
;TYPE:SKIN
G1 F5952.6 X522.125 Y1007.875 E62120.20108
G92 E0
G1 X522.125 Y992.125 E979.75783
G1 X1477.875 Y992.125 E60433.95121
G92 E0
G1 X1477.875 Y1007.875 E979.75783
;MESH:NONMESH
G0 F600 X1477.875 Y1007.875 Z152
G0 F6250.2 X1477.43 Y1007.43
G0 X1492.5 Y1022.5
;TIME_ELAPSED:632.293689
;LAYER:15
;TYPE:WALL-OUTER
;MESH:StraightWall.stl
G1 X507.5 Y1022.5 E59335.70415
G92 E0
G1 X507.5 Y977.5 E2666.0077
G1 X1492.5 Y977.5 E61021.95402
G92 E0
G1 X1492.5 Y1022.5 E2666.0077
G0 X1492.5 Y1017.5
G0 X1477.43 Y1007.43
G0 X1477.875 Y1007.875
;TYPE:SKIN
G1 F5952.6 X522.125 Y1007.875 E62120.20108
G92 E0
G1 X522.125 Y992.125 E979.75783
G1 X1477.875 Y992.125 E60433.95121
G92 E0
G1 X1477.875 Y1007.875 E979.75783
;MESH:NONMESH
G0 F600 X1477.875 Y1007.875 Z161.5
G0 F6250.2 X1477.43 Y1007.43
G0 X1492.5 Y1022.5
;TIME_ELAPSED:673.287013
;LAYER:16
;TYPE:WALL-OUTER
;MESH:StraightWall.stl
G1 X507.5 Y1022.5 E59335.70415
G92 E0
G1 X507.5 Y977.5 E2666.0077
G1 X1492.5 Y977.5 E61021.95402
G92 E0
G1 X1492.5 Y1022.5 E2666.0077
G0 X1492.5 Y1017.5
G0 X1477.43 Y1007.43
G0 X1477.875 Y1007.875
;TYPE:SKIN
G1 F5952.6 X522.125 Y1007.875 E62120.20108
G92 E0
G1 X522.125 Y992.125 E979.75783
G1 X1477.875 Y992.125 E60433.95121
G92 E0
G1 X1477.875 Y1007.875 E979.75783
;MESH:NONMESH
G0 F600 X1477.875 Y1007.875 Z171
G0 F6250.2 X1477.43 Y1007.43
G0 X1492.5 Y1022.5
;TIME_ELAPSED:714.280336
;LAYER:17
;TYPE:WALL-OUTER
;MESH:StraightWall.stl
G1 X507.5 Y1022.5 E59335.70415
G92 E0
G1 X507.5 Y977.5 E2666.0077
G1 X1492.5 Y977.5 E61021.95402
G92 E0
G1 X1492.5 Y1022.5 E2666.0077
G0 X1492.5 Y1017.5
G0 X1477.43 Y1007.43
G0 X1477.875 Y1007.875
;TYPE:SKIN
G1 F5952.6 X522.125 Y1007.875 E62120.20108
G92 E0
G1 X522.125 Y992.125 E979.75783
G1 X1477.875 Y992.125 E60433.95121
G92 E0
G1 X1477.875 Y1007.875 E979.75783
;MESH:NONMESH
G0 F600 X1477.875 Y1007.875 Z180.5
G0 F6250.2 X1477.43 Y1007.43
G0 X1492.5 Y1022.5
;TIME_ELAPSED:755.273660
;LAYER:18
;TYPE:WALL-OUTER
;MESH:StraightWall.stl
G1 X507.5 Y1022.5 E59335.70415
G92 E0
G1 X507.5 Y977.5 E2666.0077
G1 X1492.5 Y977.5 E61021.95402
G92 E0
G1 X1492.5 Y1022.5 E2666.0077
G0 X1492.5 Y1017.5
G0 X1477.43 Y1007.43
G0 X1477.875 Y1007.875
;TYPE:SKIN
G1 F5952.6 X522.125 Y1007.875 E62120.20108
G92 E0
G1 X522.125 Y992.125 E979.75783
G1 X1477.875 Y992.125 E60433.95121
G92 E0
G1 X1477.875 Y1007.875 E979.75783
;MESH:NONMESH
G0 F600 X1477.875 Y1007.875 Z190
G0 F6250.2 X1477.43 Y1007.43
G0 X1492.5 Y1022.5
;TIME_ELAPSED:796.266983
;LAYER:19
;TYPE:WALL-OUTER
;MESH:StraightWall.stl
G1 X507.5 Y1022.5 E59335.70415
G92 E0
G1 X507.5 Y977.5 E2666.0077
G1 X1492.5 Y977.5 E61021.95402
G92 E0
G1 X1492.5 Y1022.5 E2666.0077
G0 X1492.5 Y1017.5
G0 X1477.43 Y1007.43
G0 X1477.875 Y1007.875
;TYPE:SKIN
G1 F5952.6 X522.125 Y1007.875 E62120.20108
G92 E0
G1 X522.125 Y992.125 E979.75783
G1 X1477.875 Y992.125 E60433.95121
G92 E0
G1 X1477.875 Y1007.875 E979.75783
;MESH:NONMESH
G0 F600 X1477.875 Y1007.875 Z199.5
G0 F6250.2 X1477.43 Y1007.43
G0 X1492.5 Y1022.5
;TIME_ELAPSED:837.260307
;LAYER:20
;TYPE:WALL-OUTER
;MESH:StraightWall.stl
G1 X507.5 Y1022.5 E59335.70415
G92 E0
G1 X507.5 Y977.5 E2666.0077
G1 X1492.5 Y977.5 E61021.95402
G92 E0
G1 X1492.5 Y1022.5 E2666.0077
G0 X1492.5 Y1017.5
G0 X1477.43 Y1007.43
G0 X1477.875 Y1007.875
;TYPE:SKIN
G1 F5952.6 X522.125 Y1007.875 E62120.20108
G92 E0
G1 X522.125 Y992.125 E979.75783
G1 X1477.875 Y992.125 E60433.95121
G92 E0
G1 X1477.875 Y1007.875 E979.75783
;MESH:NONMESH
G0 F600 X1477.875 Y1007.875 Z209
G0 F6250.2 X1477.43 Y1007.43
G0 X1492.5 Y1022.5
;TIME_ELAPSED:878.253630
;LAYER:21
;TYPE:WALL-OUTER
;MESH:StraightWall.stl
G1 X507.5 Y1022.5 E59335.70415
G92 E0
G1 X507.5 Y977.5 E2666.0077
G1 X1492.5 Y977.5 E61021.95402
G92 E0
G1 X1492.5 Y1022.5 E2666.0077
G0 X1492.5 Y1017.5
G0 X1477.43 Y1007.43
G0 X1477.875 Y1007.875
;TYPE:SKIN
G1 F5952.6 X522.125 Y1007.875 E62120.20108
G92 E0
G1 X522.125 Y992.125 E979.75783
G1 X1477.875 Y992.125 E60433.95121
G92 E0
G1 X1477.875 Y1007.875 E979.75783
;MESH:NONMESH
G0 F600 X1477.875 Y1007.875 Z218.5
G0 F6250.2 X1477.43 Y1007.43
G0 X1492.5 Y1022.5
;TIME_ELAPSED:919.246954
;LAYER:22
;TYPE:WALL-OUTER
;MESH:StraightWall.stl
G1 X507.5 Y1022.5 E59335.70415
G92 E0
G1 X507.5 Y977.5 E2666.0077
G1 X1492.5 Y977.5 E61021.95402
G92 E0
G1 X1492.5 Y1022.5 E2666.0077
G0 X1492.5 Y1017.5
G0 X1477.43 Y1007.43
G0 X1477.875 Y1007.875
;TYPE:SKIN
G1 F5952.6 X522.125 Y1007.875 E62120.20108
G92 E0
G1 X522.125 Y992.125 E979.75783
G1 X1477.875 Y992.125 E60433.95121
G92 E0
G1 X1477.875 Y1007.875 E979.75783
;MESH:NONMESH
G0 F600 X1477.875 Y1007.875 Z228
G0 F6250.2 X1477.43 Y1007.43
G0 X1492.5 Y1022.5
;TIME_ELAPSED:960.240277
;LAYER:23
;TYPE:WALL-OUTER
;MESH:StraightWall.stl
G1 X507.5 Y1022.5 E59335.70415
G92 E0
G1 X507.5 Y977.5 E2666.0077
G1 X1492.5 Y977.5 E61021.95402
G92 E0
G1 X1492.5 Y1022.5 E2666.0077
G0 X1492.5 Y1017.5
G0 X1477.43 Y1007.43
G0 X1477.875 Y1007.875
;TYPE:SKIN
G1 F5952.6 X522.125 Y1007.875 E62120.20108
G92 E0
G1 X522.125 Y992.125 E979.75783
G1 X1477.875 Y992.125 E60433.95121
G92 E0
G1 X1477.875 Y1007.875 E979.75783
;MESH:NONMESH
G0 F600 X1477.875 Y1007.875 Z237.5
G0 F6250.2 X1477.43 Y1007.43
G0 X1492.5 Y1022.5
;TIME_ELAPSED:1001.233601
;LAYER:24
;TYPE:WALL-OUTER
;MESH:StraightWall.stl
G1 X507.5 Y1022.5 E59335.70415
G92 E0
G1 X507.5 Y977.5 E2666.0077
G1 X1492.5 Y977.5 E61021.95402
G92 E0
G1 X1492.5 Y1022.5 E2666.0077
G0 X1492.5 Y1017.5
G0 X1477.43 Y1007.43
G0 X1477.875 Y1007.875
;TYPE:SKIN
G1 F5952.6 X522.125 Y1007.875 E62120.20108
G92 E0
G1 X522.125 Y992.125 E979.75783
G1 X1477.875 Y992.125 E60433.95121
G92 E0
G1 X1477.875 Y1007.875 E979.75783
;MESH:NONMESH
G0 F600 X1477.875 Y1007.875 Z247
G0 F6250.2 X1477.43 Y1007.43
G0 X1492.5 Y1022.5
;TIME_ELAPSED:1042.226924
;LAYER:25
;TYPE:WALL-OUTER
;MESH:StraightWall.stl
G1 X507.5 Y1022.5 E59335.70415
G92 E0
G1 X507.5 Y977.5 E2666.0077
G1 X1492.5 Y977.5 E61021.95402
G92 E0
G1 X1492.5 Y1022.5 E2666.0077
G0 X1492.5 Y1017.5
G0 X1477.43 Y1007.43
G0 X1477.875 Y1007.875
;TYPE:SKIN
G1 F5952.6 X522.125 Y1007.875 E62120.20108
G92 E0
G1 X522.125 Y992.125 E979.75783
G1 X1477.875 Y992.125 E60433.95121
G92 E0
G1 X1477.875 Y1007.875 E979.75783
;MESH:NONMESH
G0 F600 X1477.875 Y1007.875 Z256.5
G0 F6250.2 X1477.43 Y1007.43
G0 X1492.5 Y1022.5
;TIME_ELAPSED:1083.220248
;LAYER:26
;TYPE:WALL-OUTER
;MESH:StraightWall.stl
G1 X507.5 Y1022.5 E59335.70415
G92 E0
G1 X507.5 Y977.5 E2666.0077
G1 X1492.5 Y977.5 E61021.95402
G92 E0
G1 X1492.5 Y1022.5 E2666.0077
G0 X1492.5 Y1017.5
G0 X1477.43 Y1007.43
G0 X1477.875 Y1007.875
;TYPE:SKIN
G1 F5952.6 X522.125 Y1007.875 E62120.20108
G92 E0
G1 X522.125 Y992.125 E979.75783
G1 X1477.875 Y992.125 E60433.95121
G92 E0
G1 X1477.875 Y1007.875 E979.75783
;MESH:NONMESH
G0 F600 X1477.875 Y1007.875 Z266
G0 F6250.2 X1477.43 Y1007.43
G0 X1492.5 Y1022.5
;TIME_ELAPSED:1124.213571
;LAYER:27
;TYPE:WALL-OUTER
;MESH:StraightWall.stl
G1 X507.5 Y1022.5 E59335.70415
G92 E0
G1 X507.5 Y977.5 E2666.0077
G1 X1492.5 Y977.5 E61021.95402
G92 E0
G1 X1492.5 Y1022.5 E2666.0077
G0 X1492.5 Y1017.5
G0 X1477.43 Y1007.43
G0 X1477.875 Y1007.875
;TYPE:SKIN
G1 F5952.6 X522.125 Y1007.875 E62120.20108
G92 E0
G1 X522.125 Y992.125 E979.75783
G1 X1477.875 Y992.125 E60433.95121
G92 E0
