;FLAVOR:Marlin
;TIME:598
;Filament used: 6682.79m
;Layer height: 9.5
;MINX:530
;MINY:1000
;MINZ:9.5
;MAXX:1470
;MAXY:1030.66
;MAXZ:285
;TARGET_MACHINE.NAME:Unknown
;Generated with Cura_SteamEngine 5.5.0
M104 S240
M105
M109 S240
M82 ;absolute extrusion mode
G28 ;Home
G1 Z15.0 F6000 ;Move the platform down 15mm
;Prime the extruder
G92 E0
G1 F200 E3
G92 E0
G92 E0
G92 E0
;LAYER_COUNT:30
;LAYER:0
M107
;MESH:StraightWall.stl
G0 F6250.2 X1470 Y1000 Z9.5
;TYPE:WALL-OUTER
G1 X530 Y1000 E222759.75447
;MESH:NONMESH
G0 F600 X530 Y1000 Z19
G0 F6250.2 X530 Y1030.665
G0 X1470 Y1030.665
G0 X1470 Y1000
;TIME_ELAPSED:36.820939
;LAYER:1
;TYPE:WALL-OUTER
;MESH:StraightWall.stl
G92 E0
G1 X530 Y1000 E222759.75447
;MESH:NONMESH
G0 F600 X530 Y1000 Z28.5
G0 F6250.2 X530 Y1030.665
G0 X1470 Y1030.665
G0 X1470 Y1000
;TIME_ELAPSED:56.557678
;LAYER:2
;TYPE:WALL-OUTER
;MESH:StraightWall.stl
G92 E0
G1 X530 Y1000 E222759.75447
;MESH:NONMESH
G0 F600 X530 Y1000 Z38
G0 F6250.2 X530 Y1030.665
G0 X1470 Y1030.665
G0 X1470 Y1000
;TIME_ELAPSED:76.294418
;LAYER:3
;TYPE:WALL-OUTER
;MESH:StraightWall.stl
G92 E0
G1 X530 Y1000 E222759.75447
;MESH:NONMESH
G0 F600 X530 Y1000 Z47.5
G0 F6250.2 X530 Y1030.665
G0 X1470 Y1030.665
G0 X1470 Y1000
;TIME_ELAPSED:96.031157
;LAYER:4
;TYPE:WALL-OUTER
;MESH:StraightWall.stl
G92 E0
G1 X530 Y1000 E222759.75447
;MESH:NONMESH
G0 F600 X530 Y1000 Z57
G0 F6250.2 X530 Y1030.665
G0 X1470 Y1030.665
G0 X1470 Y1000
;TIME_ELAPSED:115.767897
;LAYER:5
;TYPE:WALL-OUTER
;MESH:StraightWall.stl
G92 E0
G1 X530 Y1000 E222759.75447
;MESH:NONMESH
G0 F600 X530 Y1000 Z66.5
G0 F6250.2 X530 Y1030.665
G0 X1470 Y1030.665
G0 X1470 Y1000
;TIME_ELAPSED:135.504636
;LAYER:6
;TYPE:WALL-OUTER
;MESH:StraightWall.stl
G92 E0
G1 X530 Y1000 E222759.75447
;MESH:NONMESH
G0 F600 X530 Y1000 Z76
G0 F6250.2 X530 Y1030.665
G0 X1470 Y1030.665
G0 X1470 Y1000
;TIME_ELAPSED:155.241376
;LAYER:7
;TYPE:WALL-OUTER
;MESH:StraightWall.stl
G92 E0
G1 X530 Y1000 E222759.75447
;MESH:NONMESH
G0 F600 X530 Y1000 Z85.5
G0 F6250.2 X530 Y1030.665
G0 X1470 Y1030.665
G0 X1470 Y1000
;TIME_ELAPSED:174.978115
;LAYER:8
;TYPE:WALL-OUTER
;MESH:StraightWall.stl
G92 E0
G1 X530 Y1000 E222759.75447
;MESH:NONMESH
G0 F600 X530 Y1000 Z95
G0 F6250.2 X530 Y1030.665
G0 X1470 Y1030.665
G0 X1470 Y1000
;TIME_ELAPSED:194.714854
;LAYER:9
;TYPE:WALL-OUTER
;MESH:StraightWall.stl
G92 E0
G1 X530 Y1000 E222759.75447
;MESH:NONMESH
G0 F600 X530 Y1000 Z104.5
G0 F6250.2 X530 Y1030.665
G0 X1470 Y1030.665
G0 X1470 Y1000
;TIME_ELAPSED:214.451594
;LAYER:10
;TYPE:WALL-OUTER
;MESH:StraightWall.stl
G92 E0
G1 X530 Y1000 E222759.75447
;MESH:NONMESH
G0 F600 X530 Y1000 Z114
G0 F6250.2 X530 Y1030.665
G0 X1470 Y1030.665
G0 X1470 Y1000
;TIME_ELAPSED:234.188333
;LAYER:11
;TYPE:WALL-OUTER
;MESH:StraightWall.stl
G92 E0
G1 X530 Y1000 E222759.75447
;MESH:NONMESH
G0 F600 X530 Y1000 Z123.5
G0 F6250.2 X530 Y1030.665
G0 X1470 Y1030.665
G0 X1470 Y1000
;TIME_ELAPSED:253.925073
;LAYER:12
;TYPE:WALL-OUTER
;MESH:StraightWall.stl
G92 E0
G1 X530 Y1000 E222759.75447
;MESH:NONMESH
G0 F600 X530 Y1000 Z133
G0 F6250.2 X530 Y1030.665
G0 X1470 Y1030.665
G0 X1470 Y1000
;TIME_ELAPSED:273.661812
;LAYER:13
;TYPE:WALL-OUTER
;MESH:StraightWall.stl
G92 E0
G1 X530 Y1000 E222759.75447
;MESH:NONMESH
G0 F600 X530 Y1000 Z142.5
G0 F6250.2 X530 Y1030.665
G0 X1470 Y1030.665
G0 X1470 Y1000
;TIME_ELAPSED:293.398552
;LAYER:14
;TYPE:WALL-OUTER
;MESH:StraightWall.stl
G92 E0
G1 X530 Y1000 E222759.75447
;MESH:NONMESH
G0 F600 X530 Y1000 Z152
G0 F6250.2 X530 Y1030.665
G0 X1470 Y1030.665
G0 X1470 Y1000
;TIME_ELAPSED:313.135291
;LAYER:15
;TYPE:WALL-OUTER
;MESH:StraightWall.stl
G92 E0
G1 X530 Y1000 E222759.75447
;MESH:NONMESH
G0 F600 X530 Y1000 Z161.5
G0 F6250.2 X530 Y1030.665
G0 X1470 Y1030.665
G0 X1470 Y1000
;TIME_ELAPSED:332.872030
;LAYER:16
;TYPE:WALL-OUTER
;MESH:StraightWall.stl
G92 E0
G1 X530 Y1000 E222759.75447
;MESH:NONMESH
G0 F600 X530 Y1000 Z171
G0 F6250.2 X530 Y1030.665
G0 X1470 Y1030.665
G0 X1470 Y1000
;TIME_ELAPSED:352.608770
;LAYER:17
;TYPE:WALL-OUTER
;MESH:StraightWall.stl
G92 E0
G1 X530 Y1000 E222759.75447
;MESH:NONMESH
G0 F600 X530 Y1000 Z180.5
G0 F6250.2 X530 Y1030.665
G0 X1470 Y1030.665
G0 X1470 Y1000
;TIME_ELAPSED:372.345509
;LAYER:18
;TYPE:WALL-OUTER
;MESH:StraightWall.stl
G92 E0
G1 X530 Y1000 E222759.75447
;MESH:NONMESH
G0 F600 X530 Y1000 Z190
G0 F6250.2 X530 Y1030.665
G0 X1470 Y1030.665
G0 X1470 Y1000
;TIME_ELAPSED:392.082249
;LAYER:19
;TYPE:WALL-OUTER
;MESH:StraightWall.stl
G92 E0
G1 X530 Y1000 E222759.75447
;MESH:NONMESH
G0 F600 X530 Y1000 Z199.5
G0 F6250.2 X530 Y1030.665
G0 X1470 Y1030.665
G0 X1470 Y1000
;TIME_ELAPSED:411.818988
;LAYER:20
;TYPE:WALL-OUTER
;MESH:StraightWall.stl
G92 E0
G1 X530 Y1000 E222759.75447
;MESH:NONMESH
G0 F600 X530 Y1000 Z209
G0 F6250.2 X530 Y1030.665
G0 X1470 Y1030.665
G0 X1470 Y1000
;TIME_ELAPSED:431.555728
;LAYER:21
;TYPE:WALL-OUTER
;MESH:StraightWall.stl
G92 E0
G1 X530 Y1000 E222759.75447
;MESH:NONMESH
G0 F600 X530 Y1000 Z218.5
G0 F6250.2 X530 Y1030.665
G0 X1470 Y1030.665
G0 X1470 Y1000
;TIME_ELAPSED:451.292467
;LAYER:22
;TYPE:WALL-OUTER
;MESH:StraightWall.stl
G92 E0
G1 X530 Y1000 E222759.75447
;MESH:NONMESH
G0 F600 X530 Y1000 Z228
G0 F6250.2 X530 Y1030.665
G0 X1470 Y1030.665
G0 X1470 Y1000
;TIME_ELAPSED:471.029206
;LAYER:23
;TYPE:WALL-OUTER
;MESH:StraightWall.stl
G92 E0
G1 X530 Y1000 E222759.75447
;MESH:NONMESH
G0 F600 X530 Y1000 Z237.5
G0 F6250.2 X530 Y1030.665
G0 X1470 Y1030.665
G0 X1470 Y1000
;TIME_ELAPSED:490.765946
;LAYER:24
;TYPE:WALL-OUTER
;MESH:StraightWall.stl
G92 E0
G1 X530 Y1000 E222759.75447
;MESH:NONMESH
G0 F600 X530 Y1000 Z247
G0 F6250.2 X530 Y1030.665
G0 X1470 Y1030.665
G0 X1470 Y1000
;TIME_ELAPSED:510.502685
;LAYER:25
;TYPE:WALL-OUTER
;MESH:StraightWall.stl
G92 E0
G1 X530 Y1000 E222759.75447
;MESH:NONMESH
G0 F600 X530 Y1000 Z256.5
G0 F6250.2 X530 Y1030.665
G0 X1470 Y1030.665
G0 X1470 Y1000
;TIME_ELAPSED:530.239425
;LAYER:26
;TYPE:WALL-OUTER
;MESH:StraightWall.stl
G92 E0
G1 X530 Y1000 E222759.75447
;MESH:NONMESH
G0 F600 X530 Y1000 Z266
G0 F6250.2 X530 Y1030.665
G0 X1470 Y1030.665
G0 X1470 Y1000
;TIME_ELAPSED:549.976164
;LAYER:27
;TYPE:WALL-OUTER
;MESH:StraightWall.stl
G92 E0
G1 X530 Y1000 E222759.75447
;MESH:NONMESH
G0 F600 X530 Y1000 Z275.5
G0 F6250.2 X530 Y1030.665
G0 X1470 Y1030.665
G0 X1470 Y1000
;TIME_ELAPSED:569.712904
;LAYER:28
;TYPE:WALL-OUTER
;MESH:StraightWall.stl
G92 E0
G1 X530 Y1000 E222759.75447
;MESH:NONMESH
G0 F600 X530 Y1000 Z285
G0 F6250.2 X530 Y1030.665
G0 X1470 Y1030.665
G0 X1470 Y1000
;TIME_ELAPSED:589.449643
;LAYER:29
;TYPE:WALL-OUTER
;MESH:StraightWall.stl
G92 E0
G1 X530 Y1000 E222759.75447
;TIME_ELAPSED:598.497004
M104 S0
M140 S0
;Retract the filament
G92 E1
G1 E-1 F300
G28 X0 Y0
M84
M82 ;absolute extrusion mode
M104 S0
;End of Gcode
;SETTING_3 {"global_quality": "[general]\\nversion = 4\\nname = Fine #2\\ndefini
;SETTING_3 tion = custom\\n\\n[metadata]\\ntype = quality_changes\\nquality_type
;SETTING_3  = normal\\nsetting_version = 22\\n\\n[values]\\nadhesion_type = none
;SETTING_3 \\nlayer_height = 9.5\\nlayer_height_0 = 9.5\\n\\n", "extruder_qualit
;SETTING_3 y": ["[general]\\nversion = 4\\nname = Fine #2\\ndefinition = custom\
;SETTING_3 \n\\n[metadata]\\ntype = quality_changes\\nquality_type = normal\\nse
;SETTING_3 tting_version = 22\\nposition = 0\\n\\n[values]\\ncool_fan_enabled = 
;SETTING_3 False\\ninfill_sparse_density = 100\\nline_width = 60\\nretraction_en
;SETTING_3 able = False\\nspeed_layer_0 = 104.17\\nspeed_print = 104.17\\nspeed_
;SETTING_3 topbottom = 104.17\\nspeed_travel = 104.17\\nspeed_wall = 104.17\\nsp
;SETTING_3 eed_wall_x = 104.17\\ntop_bottom_thickness = 9.5\\nwall_thickness = 6
;SETTING_3 0\\n\\n"]}
